X:1
T:Bourrée in E Minor
T:(For accordion, piano and organ)
T:J. S. Bach BWV996
%%score { 1 | 2 }
L:1/8
M:4/4
K:G
V:1 treble nm="Accordion"
V:2 bass 
V:1
"^Stradella-Bass""^Questions or mistakes: motrans@arcor.de\n          Bass-fingering is only experimental!" ef"^Underlined bass-button: Button\ncan be found in the first row" | %1
 g2 fe ^d2 ef | B2 ^c^d e2 =d=c | B2 AG F2 GA | BAGF E2 ef | g2 fe ^d2 ef | B2 ^c^d e2 =d=c | %7
 B2 AG PF3 G | G6 :: BG | d2 Ac B2 gd | e2 Bd c2 BA | ^G2 AB c2 BA | A6 dA | B2 gd e2 Bd | %15
 c2 ae f2 ^ce | d2 ^cB P^A3 B | B6 bf | ^g2 fe a2 e=g | f2 ed g2 d=f | e2 ae f2 ^ce | ^d2 B4 eB | %22
 c2 dA B2 cG | A2 BF G2 FE | ^D2 EF G2 FE | E6 :| %26
V:2
 G,F, | E,2 A,2 B,2 A,2 | G,2 F,2 E,2 F,2 | G,2 A,2 B,2 A,2 | G,2 B,2 E,F,G,F, | E,2 A,2 B,2 A,2 | %6
w: G Fis|E A H A|G Fis E Fis|G A H A|G H E Fis G Fis|E A H A|
w: 4 3|4 5 3 5|4 3 4 2|3 5 3 5|3 3 4 2 3 2|4 5 3 5|
 G,2 F,2 E,2 F,2 | E,2 C2 D2 D2 | [G,B,D]6 :: G,2 | F,2 D2 G,2 B,2 | C2 ^G,2 A,2 D2 | %12
w: G Fis E Fis|G C D D|g|G|Fis D G H|C Gis A D|
w: 3 2 4 2|3 4 3 3|4|4|3 3 4 4|5 2 3 4|
 E2 A,2 E2 E,2 | A,B,A,G, F,2 D2 | G,2 B,2 C2 ^G,2 | A,2 ^C2 D2 ^A,2 | B,2 E2 F2 F,2 | %17
w: E A E E|A H A G Fis D|G H C Gis|A Cis D Ais|H E Fis Fis|
w: 2 3 2 2|5 3 5 3 2 2|4 4 5 2|3 3 4 2|3 4 2 2|
 B,^A,B,^C ^D2 B,2 | E2 D2 ^C2 A,2 | D2 C2 B,2 G,2 | C2 B,2 A,2 F,2 | B,3 C B,A, ^G,2 | %22
w: H Ais H Cis Dis H|E D Cis A|D C H G|C H A Fis|H C H A Gis|
w: 4 3 4 2 4 4|3 4 3 3|3 5 4 4|4 3 5 2|3 4 3 5 2|
 A,E F2 G,^D E2 | =F,^C D2 E,2 A,2 | B,2 A,2 B,4 | E,6 :| %26
w: A E Fis G Dis E|F Cis Dis E A|H A H|E|
w: 3 2 4 5 2 2|5 3 2 2 3|2 4 2|3|

